svgs/sharp-regular/input-pipe.svg

<svg xmlns="http://www.w3.org/2000/svg" viewBox="0 0 640 512"><!--! Font Awesome Pro 6.6.0 by @fontawesome - https://fontawesome.com License - https://fontawesome.com/license (Commercial License) Copyright 2024 Fonticons, Inc. --><path d="M48 112l0 288 544 0 0-288L48 112zM0 64l48 0 544 0 48 0 0 48 0 288 0 48-48 0L48 448 0 448l0-48L0 112 0 64zM144 184l0 144 0 24-48 0 0-24 0-144 0-24 48 0 0 24z"/></svg>

<svg xmlns="http://www.w3.org/2000/svg" viewBox="0 0 640 512"><!--! Font Awesome Pro 6.4.0 by @fontawesome - https://fontawesome.com License - https://fontawesome.com/license (Commercial License) Copyright 2023 Fonticons, Inc. --><path d="M48 112V400H592V112H48zM0 64H48 592h48v48V400v48H592 48 0V400 112 64zM144 184V328v24H96V328 184 160h48v24z"/></svg>
